!!!COM: Corelli, Arcangelo
!!!OTL: 
!!!ONM: Opus 5, No. 7
!!!OMV: 2
!!!CDT: 1653/2/17/-1713/1/8/
!!!OCY: Italia
**kern	**kern	**kern
*clefC	*clefG	*clefG
*k[]	*k[]	*k[]
*a:	*a:	*a:
*M3/4	*M3/4	*M3/4
2r	2r	3..r
8r	8r	.
.	.	24r
8D	8r	8d
=1	=1	=1
2D	2.r	4.d
.	.	8f
4C#	.	8e
.	.	8g
=2	=2	=2
4D	2.r	8f
.	.	8a
4F	.	8dd
.	.	8f
4A	.	8e
.	.	8cc#
=3	=3	=3
4D	2.r	4.dd
4d	.	.
.	.	8ff
4B-	.	8ee
.	.	8dd
=4	=4	=4
2C	2.r	8ee
.	.	8a
.	.	8cc
.	.	8ee
4A	.	8cc
.	.	8a
=5	=5	=5
4BB-	2.r	4dd
4B-	.	8B-
.	.	8dd
4G	.	8cc
.	.	8b-
=6	=6	=6
2AA	2.r	8cc
.	.	8f
.	.	8a
.	.	8cc
4F	.	8a
.	.	8f
=7	=7	=7
4GG	2.r	4b-
4C	.	8G
.	.	8dd
4E	.	8cc
.	.	8b-
=8	=8	=8
2FF	2.r	8a
.	.	8f
.	.	8a
.	.	8cc
4AA	.	8ff
.	.	8cc
=9	=9	=9
2BB-	2.r	8dd
.	.	8b-
.	.	8dd
.	.	8ff
4GG	.	8gg
.	.	8dd
=10	=10	=10
4C	2.r	8ee
.	.	8cc
4c	.	8dd
.	.	8ee
4B-	.	8ff
.	.	8gg
=11	=11	=11
4A	2.r	8ff
.	.	8gg
4A	.	8ff
.	.	8gg
4G	.	8ff
.	.	8gg
=12	=12	=12
4r	2.r	8ff
.	.	8cc
4F	.	8dd
.	.	8ee
4E	.	8ff
.	.	8gg
=13	=13	=13
4D	2.r	12ff
.	.	12gg
.	.	12ee
4C	.	12ff
.	.	12gg
.	.	12ee
4BB-	.	12ff
.	.	12gg
.	.	12ee
=14	=14	=14
2AA	2.r	8ff
.	.	8cc
.	.	8a
.	.	8b-
4A	.	8cc
.	.	8a
=15	=15	=15
2B-	2.r	8dd
.	.	8d
.	.	8e
.	.	8f
4BB-	.	8g
.	.	8f
=16	=16	=16
2C	2.r	8e
.	.	8dd
.	.	8cc
.	.	8e
4D	.	8f
.	.	8A
=17	=17	=17
4BB-	4r	8B-
.	.	8f
2C	2c	4f
.	.	4e
=18	=18	=18
4F	4.c	4.a 4.f
4A	.	.
.	4.r	8aa
4B	.	8gg
.	.	8ff
=19	=19	=19
2.c	2.r	8ee
.	.	8gg
.	.	8ee
.	.	8cc
.	.	8ee
.	.	8ff#
=20	=20	=20
4G	2.r	4.gg
4B-	.	.
.	.	8bb-
4c#	.	8aa
.	.	8gg
=21	=21	=21
2.d	2.r	8ff
.	.	8aa
.	.	8ff
.	.	8dd
.	.	8ff
.	.	8gg#
=22	=22	=22
4A	2.r	4.aa
4c	.	.
.	.	8ccc
4d	.	8bb
.	.	8aa
=23	=23	=23
2.e	2.r	8gg#
.	.	8ee
.	.	8dd
.	.	8ee
.	.	8b
.	.	8ee
=24	=24	=24
4A	2.r	8cc
.	.	8ee
4c	.	8dd
.	.	8ee
4A	.	8cc
.	.	8ee
=25	=25	=25
4G#	2.r	8b
.	.	8ee
4e	.	8dd
.	.	8ee
4G	.	8b
.	.	8ee
=26	=26	=26
4F#	2.r	8a
.	.	8ee
4d	.	8dd
.	.	8ee
4F	.	8a
.	.	8ee
=27	=27	=27
4.E	4.g#	4.ee 4.b
8G#	4.r	8dd
4A	.	8cc
.	.	8b
=28	=28	=28
4D	4r	8cc
.	.	8d
2E	2e	4.b
.	.	8a
=29	=29	=29
4A	2.r	8a
.	.	8ee
4c	.	8dd
.	.	8ee
4A	.	8cc
.	.	8ee
=30	=30	=30
4G#	2.r	8b
.	.	8ee
4e	.	8dd
.	.	8ee
4G	.	8b
.	.	8ee
=31	=31	=31
4F#	2.r	8a
.	.	8ee
4d	.	8dd
.	.	8ee
4F	.	8a
.	.	8ee
=32	=32	=32
4.E	4.g#	4.ee 4.b
8G#	4.r	8dd
4A	.	8cc
.	.	8b
=33	=33	=33
4D	4r	8cc
.	.	8d
2E	2e	4.b
.	.	8a
=34	=34	=34
2AA	2A	2a 2e
8r	4r	8r
8A	.	8ee
=35	=35	=35
2.A	2.r	4.ee
.	.	8aa
.	.	8gg#
.	.	8aa
=36	=36	=36
4C#	2.r	8ee
.	.	8aa
4AA	.	8cc#
.	.	8ee
4C#	.	8a
.	.	8aa
=37	=37	=37
4D	2.r	4.ff
4F	.	.
.	.	8ff
4D	.	8gg
.	.	8aa
=38	=38	=38
4BB	2.r	8dd
.	.	8gg
4GG	.	8b
.	.	8gg
4BB	.	8g
.	.	8gg
=39	=39	=39
4C	2.r	4.ee
4E	.	.
.	.	8ee
4C	.	8ff
.	.	8gg
=40	=40	=40
4AA	2.r	8cc
.	.	8ff
4FF	.	8a
.	.	8ff
4AA	.	8f
.	.	8ff
=41	=41	=41
2.BB-	2.r	12dd
.	.	12ee
.	.	12ff
.	.	12dd
.	.	12ee
.	.	12ff
.	.	12dd
.	.	12ee
.	.	12ff
=42	=42	=42
2.C	2.r	12ee
.	.	12ff
.	.	12gg
.	.	12ee
.	.	12ff
.	.	12gg
.	.	12ee
.	.	12ff
.	.	12gg
=43	=43	=43
2.D	2.r	12ff
.	.	12gg
.	.	12aa
.	.	12ff
.	.	12gg
.	.	12aa
.	.	12ff
.	.	12gg
.	.	12aa
=44	=44	=44
2.E	2.r	12gg
.	.	12aa
.	.	12bb-
.	.	12gg
.	.	12aa
.	.	12bb-
.	.	12gg
.	.	12aa
.	.	12bb-
=45	=45	=45
4F	2.r	8aa
.	.	8ccc
4A	.	8aa
.	.	8ccc
4F	.	8aa
.	.	8ccc
=46	=46	=46
4E	2.r	8gg
.	.	8ccc
4c	.	8gg
.	.	8ccc
4E	.	8gg
.	.	8ccc
=47	=47	=47
4D	2.r	8ff
.	.	8ccc
4B-	.	8ff
.	.	8ccc
4D	.	8ff
.	.	8ccc
=48	=48	=48
4.C	2.r	4.ee
8E	.	8bb-
4F	.	8aa
.	.	8gg
=49	=49	=49
4BB-	4r	8aa
.	.	8b-
4C	2cc	4.gg
4CC	.	.
.	.	8ff
=50	=50	=50
2FF	4.a	4.ff
.	4.r	8aa
4F	.	8aa
.	.	8bb
=51	=51	=51
4E	2.r	4.ccc
4F#	.	.
.	.	8ddd
4D	.	8bb-
.	.	8aa
=52	=52	=52
4.G	2.r	4.bb-
8D	.	8ff#
4E-	.	8gg
.	.	8aa
=53	=53	=53
4C	2.r	8bb-
.	.	8aa
4D	.	4.aa
4DD	.	.
.	.	8gg
=54	=54	=54
4GG	2.r	8gg
.	.	8aa
4G	.	8bb-
.	.	8gg
4F	.	8aa
.	.	8bb-
=55	=55	=55
4E	2.r	4.cc
4c	.	.
.	.	8bb-
4C	.	8aa
.	.	8gg
=56	=56	=56
4r	2.r	8aa
.	.	8ff
4F	.	8gg
.	.	8aa
4E	.	8ff
.	.	8aa
=57	=57	=57
4D	2.r	4.b-
4B-	.	.
.	.	8aa
4BB-	.	8gg
.	.	8ff
=58	=58	=58
4r	2.r	8gg
.	.	8ee
4E	.	8ff
.	.	8gg
4D	.	8ee
.	.	8gg
=59	=59	=59
4C#	2.r	4.a
4A	.	.
.	.	8gg
4AA	.	8ff
.	.	8ee
=60	=60	=60
4r	2.r	8ff
.	.	8a
4d	.	8dd
.	.	8ff
4D	.	8bb-
.	.	8dd
=61	=61	=61
4r	2.r	8cc
.	.	8ee
4c	.	8aa
.	.	8ee
4C	.	8cc
.	.	8aa
=62	=62	=62
4r	2.r	8b-
.	.	8dd
4B-	.	8gg
.	.	8dd
4BB-	.	8b-
.	.	8gg
=63	=63	=63
4r	2.r	8a
.	.	8cc
4A	.	8ff
.	.	8cc
4AA	.	8a
.	.	8ff
=64	=64	=64
4r	2.r	8g
.	.	8b-
4G	.	8ee
.	.	8b-
4GG	.	8g
.	.	8ee
=65	=65	=65
4r	2.r	8f
.	.	8a
4F	.	8dd
.	.	8a
4FF	.	8f
.	.	8dd
=66	=66	=66
4r	2.r	8g
.	.	8cc#
4GG	.	8dd
.	.	8f
4AA	.	8e
.	.	8cc#
=67	=67	=67
4DD	2.r	8d
.	.	8f
4d	.	8b-
.	.	8f
4D	.	8d
.	.	8b-
=68	=68	=68
4r	2.r	8c
.	.	8e
4c	.	8a
.	.	8e
4C	.	8c
.	.	8a
=69	=69	=69
4r	2.r	8B-
.	.	8d
4B-	.	8g
.	.	8d
4BB-	.	8B-
.	.	8d
=70	=70	=70
4.AA	4.A	4.cc# 4.g
8F	4.r	8dd
4G	.	8b-
.	.	8a
=71	=71	=71
4D	4r	8g
.	.	8f
4A	2A	4.e
4AA	.	.
.	.	8d
=72	=72	=72
4.D	4.d	4.d
8F	4.r	8dd
4G	.	8b-
.	.	8a
=73	=73	=73
4D	4r	8g
.	.	8f
4A	2A	4.e
4AA	.	.
.	.	8d
=74	=74	=74
2D	2d	2d
8r	8r	8r
8r	8r	8r
==	==	==
*-	*-	*-
!!!RWG: This file only contains pitch and duration data.
!!!RWG: Transposing instruments are not transposed.
!!!RWG: Durations of rests and tied notes may be interpreted.
!!!RWG: Key is interpreted using the Humdrum key tool.
!!!SCA: 
!!!YOR: 
!!!AGN: violin
!!!AFT: stage1
!!!ENC: F. Bennion
!!!END: 1997/04/15
!!!AST: baroque
!!!YEC: Copyright 1994, Center for Computer Assisted Research in the Humanities
!!!YEM: Rights to all derivative electronic formats reserved.
!!!YEM: Refer to licensing agreement for further details.
!!!YEN: United States of America
!!!EED: W.B. Hewlett
!!!KEY: 3280576754
!!!EMD: Converted from MuseData to Humdrum Aug 9, 1999, by Bret Aarden using muse2kern.
!!!VTS: 2966169426
